; generated by Slic3r 1.3.0-dev on 2017-05-24 at 18:01:02

; external perimeters extrusion width = 0.40mm
; perimeters extrusion width = 0.48mm
; infill extrusion width = 0.48mm
; solid infill extrusion width = 0.48mm
; top infill extrusion width = 0.48mm

M107
M190 S60 ; set bed temperature and wait for it to be reached
M104 S215 ; set temperature
G1 X0 Y0 Z1
G92 E0.0 ; reset extruder
M109 S215 ; set temperature and wait for it to be reached
G21 ; set units to millimeters
G90 ; use absolute coordinates
M83 ; use relative distances for extrusion
G1 E-1.30000 F3600.00000
G1 Z0.550 F7800.000
G1 X10.765 Y58.044 F7800.000
G1 E1.30000 F3600.00000
G1 F1800
G1 X12.741 Y57.861 E0.18045
G1 X13.352 Y57.833 E0.05564
G1 X167.552 Y57.833 E14.02135
G1 X169.365 Y58.086 E0.16645
G1 X171.274 Y58.629 E0.18045
G1 X173.454 Y59.714 E0.22138
G1 X175.037 Y60.910 E0.18044
G1 X176.677 Y62.710 E0.22138
G1 X177.722 Y64.397 E0.18045
G1 X178.601 Y66.667 E0.22136
G1 X178.966 Y68.618 E0.18045
G1 X179.079 Y69.835 E0.11118
G1 X179.079 Y110.165 E3.66719
G1 X178.966 Y111.383 E0.11118
G1 X178.601 Y113.333 E0.18045
G1 X177.722 Y115.603 E0.22135
G1 X176.792 Y117.106 E0.16072
G1 X176.677 Y117.291 E0.01976
G1 X175.037 Y119.090 E0.22136
G1 X173.454 Y120.286 E0.18045
G1 X171.274 Y121.371 E0.22138
G1 X169.365 Y121.914 E0.18045
G1 X167.552 Y122.167 E0.16646
G1 X13.352 Y122.167 E14.02135
G1 X12.741 Y122.139 E0.05564
G1 X10.765 Y121.956 E0.18045
G1 X8.423 Y121.289 E0.22140
G1 X6.647 Y120.405 E0.18045
G1 X4.704 Y118.937 E0.22136
G1 X3.367 Y117.471 E0.18046
G1 X2.085 Y115.401 E0.22138
G1 X1.447 Y113.753 E0.16071
G1 X1.368 Y113.550 E0.01974
G1 X0.921 Y111.157 E0.22138
G1 X0.921 Y68.843 E3.84763
G1 X1.368 Y66.450 E0.22138
G1 X2.085 Y64.599 E0.18045
G1 X3.367 Y62.529 E0.22138
G1 X4.704 Y61.062 E0.18046
G1 X6.647 Y59.595 E0.22136
G1 X8.423 Y58.711 E0.18045
G1 X10.707 Y58.061 E0.21594
G1 F6240
G1 X10.981 Y58.024 E-0.15141
G1 F6240
G1 X10.981 Y58.024 E-0.00001
G1 F6240
G1 X12.741 Y57.861 E-0.96868
G1 F6240
G1 X12.950 Y57.852 E-0.11491
G1 E-0.06500 F3600.00000
G1 X166.555 Y112.607 F7800.000
G1 E1.30000 F3600.00000
G1 F1800
G1 X166.555 Y110.923 E0.15314
G1 X168.157 Y110.402 E0.15314
G1 X169.147 Y111.765 E0.15314
G1 X168.157 Y113.128 E0.15314
G1 X166.612 Y112.626 E0.14768
G1 X168.157 Y69.598 F7800.000
G1 F1800
G1 X166.555 Y69.077 E0.15314
G1 X166.555 Y67.393 E0.15314
G1 X168.157 Y66.872 E0.15314
G1 X169.147 Y68.235 E0.15314
G1 X168.192 Y69.549 E0.14769
G1 X142.024 Y79.085 F7800.000
G1 F1800
G1 X142.024 Y90.785 E1.06388
G1 X129.324 Y90.785 E1.15481
G1 X129.324 Y79.085 E1.06388
G1 X141.964 Y79.085 E1.14935
G1 X72.284 Y79.085 F7800.000
G1 F1800
G1 X72.284 Y90.785 E1.06388
G1 X59.584 Y90.785 E1.15481
G1 X59.584 Y79.085 E1.06388
G1 X72.224 Y79.085 E1.14935
G1 X13.627 Y68.235 F7800.000
G1 F1800
G1 X12.637 Y69.598 E0.15314
G1 X11.035 Y69.077 E0.15314
G1 X11.035 Y67.393 E0.15314
G1 X12.637 Y66.872 E0.15314
G1 X13.591 Y68.186 E0.14769
G1 X12.637 Y110.402 F7800.000
G1 F1800
G1 X13.627 Y111.765 E0.15314
G1 X12.637 Y113.128 E0.15314
G1 X11.035 Y112.607 E0.15314
G1 X11.035 Y110.923 E0.15314
G1 X12.580 Y110.421 E0.14768
G1 F6240
G1 X13.627 Y111.765 E-0.93375
G1 F6240
G1 X13.304 Y112.210 E-0.30125
G1 E-0.06500 F3600.00000
G1 X9.210 Y113.527 F7800.000
G1 E1.30000 F3600.00000
G1 F1800
G1 X8.566 Y112.820 E0.08693
G1 X7.896 Y111.092 E0.16855
G1 X7.896 Y68.908 E3.83573
G1 X8.566 Y67.180 E0.16855
G1 X9.814 Y65.810 E0.16856
G1 X11.474 Y64.984 E0.16855
G1 X13.368 Y64.808 E0.17303
G1 X167.504 Y64.808 E14.01544
G1 X169.302 Y65.320 E0.17006
G1 X170.782 Y66.437 E0.16854
G1 X171.757 Y68.013 E0.16856
G1 X172.104 Y69.867 E0.17155
G1 X172.104 Y110.133 E3.66129
G1 X171.757 Y111.987 E0.17155
G1 X170.782 Y113.563 E0.16855
G1 X169.302 Y114.680 E0.16854
G1 X167.504 Y115.192 E0.17006
G1 X13.368 Y115.192 E14.01544
G1 X11.474 Y115.016 E0.17303
G1 X9.814 Y114.190 E0.16855
G1 X9.250 Y113.571 E0.07618
G1 X10.371 Y111.169 F7800.000
G1 F1800
G1 X10.371 Y110.670 E0.04549
G1 X11.111 Y110.429 E0.07085
G1 X56.334 Y65.207 E5.82683
G1 X57.219 Y65.207 E0.08067
G1 X12.423 Y110.003 E5.77191
G1 X12.707 Y109.911 E0.02724
G1 X12.999 Y110.312 E0.04524
G1 X58.105 Y65.207 E5.81176
G1 X58.990 Y65.207 E0.08067
G1 X13.371 Y110.825 E5.87784
G1 X13.744 Y111.338 E0.05776
G1 X59.876 Y65.207 E5.94392
G1 X60.761 Y65.207 E0.08067
G1 X14.117 Y111.851 E6.01000
G1 X22.685 Y114.793 F7800.000
G1 F1800
G1 X23.571 Y114.793 E0.08067
G1 X59.185 Y79.179 E4.58887
G1 X59.185 Y80.064 E0.08067
G1 X24.456 Y114.793 E4.47478
G1 X25.342 Y114.793 E0.08067
G1 X59.185 Y80.950 E4.36069
G1 X59.185 Y81.835 E0.08067
G1 X26.227 Y114.793 E4.24660
G1 X27.113 Y114.793 E0.08067
G1 X59.185 Y82.721 E4.13251
G1 X59.185 Y83.606 E0.08067
G1 X27.998 Y114.793 E4.01842
G1 X28.884 Y114.793 E0.08067
G1 X59.185 Y84.492 E3.90433
G1 X59.185 Y85.377 E0.08067
G1 X29.769 Y114.793 E3.79024
G1 X30.654 Y114.793 E0.08067
G1 X59.185 Y86.262 E3.67615
G1 X59.185 Y87.148 E0.08067
G1 X31.540 Y114.793 E3.56205
G1 X32.425 Y114.793 E0.08067
G1 X59.185 Y88.033 E3.44796
G1 X59.185 Y88.919 E0.08067
G1 X33.311 Y114.793 E3.33387
G1 X34.196 Y114.793 E0.08067
G1 X59.185 Y89.804 E3.21978
G1 X59.185 Y90.690 E0.08067
G1 X35.082 Y114.793 E3.10569
G1 X35.967 Y114.793 E0.08067
G1 X59.577 Y91.184 E3.04207
G1 X60.463 Y91.184 E0.08067
G1 X36.853 Y114.793 E3.04207
G1 X37.738 Y114.793 E0.08067
G1 X61.348 Y91.184 E3.04207
G1 X62.234 Y91.184 E0.08067
G1 X38.624 Y114.793 E3.04207
G1 X39.509 Y114.793 E0.08067
G1 X63.119 Y91.184 E3.04207
G1 X64.005 Y91.184 E0.08067
G1 X40.395 Y114.793 E3.04207
G1 X41.280 Y114.793 E0.08067
G1 X64.890 Y91.184 E3.04207
G1 X65.775 Y91.184 E0.08067
G1 X42.166 Y114.793 E3.04207
G1 X43.051 Y114.793 E0.08067
G1 X66.661 Y91.184 E3.04207
G1 X67.546 Y91.184 E0.08067
G1 X43.937 Y114.793 E3.04207
G1 X44.822 Y114.793 E0.08067
G1 X68.432 Y91.184 E3.04207
G1 X69.317 Y91.184 E0.08067
G1 X45.707 Y114.793 E3.04207
G1 X46.593 Y114.793 E0.08067
G1 X70.203 Y91.184 E3.04207
G1 X71.088 Y91.184 E0.08067
G1 X47.478 Y114.793 E3.04207
G1 X48.364 Y114.793 E0.08067
G1 X71.974 Y91.184 E3.04207
G1 X72.859 Y91.184 E0.08067
G1 X49.249 Y114.793 E3.04207
G1 X91.752 Y114.793 F7800.000
G1 F1800
G1 X92.637 Y114.793 E0.08067
G1 X128.925 Y78.505 E4.67563
G1 X128.925 Y79.391 E0.08067
G1 X93.523 Y114.793 E4.56153
G1 X94.408 Y114.793 E0.08067
G1 X128.925 Y80.276 E4.44744
G1 X128.925 Y81.162 E0.08067
G1 X95.294 Y114.793 E4.33335
G1 X96.179 Y114.793 E0.08067
G1 X128.925 Y82.047 E4.21926
G1 X128.925 Y82.933 E0.08067
G1 X97.065 Y114.793 E4.10517
G1 X97.950 Y114.793 E0.08067
G1 X128.925 Y83.818 E3.99108
G1 X128.925 Y84.704 E0.08067
G1 X98.836 Y114.793 E3.87699
G1 X99.721 Y114.793 E0.08067
G1 X128.925 Y85.589 E3.76290
G1 X128.925 Y86.475 E0.08067
G1 X100.607 Y114.793 E3.64881
G1 X101.492 Y114.793 E0.08067
G1 X128.925 Y87.360 E3.53472
G1 X128.925 Y88.246 E0.08067
G1 X102.378 Y114.793 E3.42063
G1 X103.263 Y114.793 E0.08067
G1 X128.925 Y89.131 E3.30654
G1 X128.925 Y90.016 E0.08067
G1 X104.149 Y114.793 E3.19245
G1 X105.034 Y114.793 E0.08067
G1 X128.925 Y90.902 E3.07836
G1 X128.925 Y91.184 E0.02566
G1 X129.529 Y91.184 E0.05502
G1 X105.919 Y114.793 E3.04207
G1 X106.805 Y114.793 E0.08067
G1 X130.415 Y91.184 E3.04207
G1 X131.300 Y91.184 E0.08067
G1 X107.690 Y114.793 E3.04207
G1 X108.576 Y114.793 E0.08067
G1 X132.186 Y91.184 E3.04207
G1 X133.071 Y91.184 E0.08067
G1 X109.461 Y114.793 E3.04207
G1 X110.347 Y114.793 E0.08067
G1 X133.957 Y91.184 E3.04207
G1 X134.842 Y91.184 E0.08067
G1 X111.232 Y114.793 E3.04207
G1 X112.118 Y114.793 E0.08067
G1 X135.728 Y91.184 E3.04207
G1 X136.613 Y91.184 E0.08067
G1 X113.003 Y114.793 E3.04207
G1 X113.889 Y114.793 E0.08067
G1 X137.499 Y91.184 E3.04207
G1 X138.384 Y91.184 E0.08067
G1 X114.774 Y114.793 E3.04207
G1 X115.660 Y114.793 E0.08067
G1 X139.270 Y91.184 E3.04207
G1 X140.155 Y91.184 E0.08067
G1 X116.545 Y114.793 E3.04207
G1 X117.431 Y114.793 E0.08067
G1 X141.040 Y91.184 E3.04207
G1 X141.926 Y91.184 E0.08067
G1 X118.316 Y114.793 E3.04207
G1 X119.202 Y114.793 E0.08067
G1 X166.156 Y67.838 E6.05003
G1 X166.156 Y68.724 E0.08067
G1 X120.087 Y114.793 E5.93594
G1 X120.972 Y114.793 E0.08067
G1 X166.367 Y69.399 E5.84898
G1 X167.035 Y69.616 E0.06402
G1 X121.858 Y114.793 E5.82100
G1 X122.743 Y114.793 E0.08067
G1 X167.704 Y69.833 E5.79302
G1 X168.372 Y70.050 E0.06402
G1 X123.629 Y114.793 E5.76504
G1 X165.891 Y111.492 F7800.000
G1 F1800
G1 X165.891 Y110.670 E0.07489
G1 X167.109 Y110.274 E0.11666
G1 X171.705 Y105.678 E0.59223
G1 X171.705 Y106.563 E0.08067
G1 X168.282 Y109.986 E0.44109
G1 X168.655 Y110.499 E0.05776
G1 X171.705 Y107.448 E0.39308
G1 X171.705 Y108.334 E0.08067
G1 X169.027 Y111.012 E0.34507
G1 X169.400 Y111.525 E0.05776
G1 X171.705 Y109.219 E0.29706
G1 X171.705 Y109.951 E0.06663
G1 X171.670 Y110.140 E0.01757
G1 X169.027 Y112.783 E0.34052
G1 X170.250 Y113.332 F7800.000
G1 F1800
G1 X170.515 Y113.067 E0.03416
G1 X171.386 Y111.659 E0.15080
G1 X171.466 Y111.229 E0.03985
G1 X168.143 Y114.553 E0.42819
G1 X167.297 Y114.793 E0.08017
G1 X167.017 Y114.793 E0.02551
G1 X168.265 Y113.546 E0.16079
G1 X167.597 Y113.328 E0.06402
G1 X166.131 Y114.793 E0.18877
G1 X165.246 Y114.793 E0.08067
G1 X166.928 Y113.111 E0.21675
G1 X166.260 Y112.894 E0.06402
G1 X164.361 Y114.793 E0.24473
G1 X163.475 Y114.793 E0.08067
G1 X166.156 Y112.112 E0.34550
G1 X166.156 Y111.227 E0.08067
G1 X162.590 Y114.793 E0.45959
G1 X161.704 Y114.793 E0.08067
G1 X171.705 Y104.792 E1.28865
G1 X171.705 Y103.907 E0.08067
G1 X160.819 Y114.793 E1.40274
G1 X159.933 Y114.793 E0.08067
G1 X171.705 Y103.021 E1.51683
G1 X171.705 Y102.136 E0.08067
G1 X159.048 Y114.793 E1.63092
G1 X158.162 Y114.793 E0.08067
G1 X171.705 Y101.250 E1.74501
G1 X171.705 Y100.365 E0.08067
G1 X157.277 Y114.793 E1.85910
G1 X156.391 Y114.793 E0.08067
G1 X171.705 Y99.479 E1.97320
G1 X171.705 Y98.594 E0.08067
G1 X155.506 Y114.793 E2.08729
G1 X154.620 Y114.793 E0.08067
G1 X171.705 Y97.708 E2.20138
G1 X171.705 Y96.823 E0.08067
G1 X153.735 Y114.793 E2.31547
G1 X152.849 Y114.793 E0.08067
G1 X171.705 Y95.937 E2.42956
G1 X171.705 Y95.052 E0.08067
G1 X151.964 Y114.793 E2.54365
G1 X151.078 Y114.793 E0.08067
G1 X171.705 Y94.166 E2.65774
G1 X171.705 Y93.281 E0.08067
G1 X150.193 Y114.793 E2.77183
G1 X149.308 Y114.793 E0.08067
G1 X171.705 Y92.395 E2.88592
G1 X171.705 Y91.510 E0.08067
G1 X148.422 Y114.793 E3.00001
G1 X147.537 Y114.793 E0.08067
G1 X171.705 Y90.625 E3.11410
G1 X171.705 Y89.739 E0.08067
G1 X146.651 Y114.793 E3.22819
G1 X145.766 Y114.793 E0.08067
G1 X171.705 Y88.854 E3.34228
G1 X171.705 Y87.968 E0.08067
G1 X144.880 Y114.793 E3.45637
G1 X143.995 Y114.793 E0.08067
G1 X171.705 Y87.083 E3.57046
G1 X171.705 Y86.197 E0.08067
G1 X143.109 Y114.793 E3.68455
G1 X142.224 Y114.793 E0.08067
G1 X171.705 Y85.312 E3.79865
G1 X171.705 Y84.426 E0.08067
G1 X141.338 Y114.793 E3.91274
G1 X140.453 Y114.793 E0.08067
G1 X171.705 Y83.541 E4.02683
G1 X171.705 Y82.655 E0.08067
G1 X139.567 Y114.793 E4.14092
G1 X138.682 Y114.793 E0.08067
G1 X171.705 Y81.770 E4.25501
G1 X171.705 Y80.884 E0.08067
G1 X137.796 Y114.793 E4.36910
G1 X136.911 Y114.793 E0.08067
G1 X171.705 Y79.999 E4.48319
G1 X171.705 Y79.113 E0.08067
G1 X136.025 Y114.793 E4.59728
G1 X135.140 Y114.793 E0.08067
G1 X171.705 Y78.228 E4.71137
G1 X171.705 Y77.342 E0.08067
G1 X134.255 Y114.793 E4.82546
G1 X133.369 Y114.793 E0.08067
G1 X171.705 Y76.457 E4.93955
G1 X171.705 Y75.572 E0.08067
G1 X132.484 Y114.793 E5.05364
G1 X131.598 Y114.793 E0.08067
G1 X171.705 Y74.686 E5.16773
G1 X171.705 Y73.801 E0.08067
G1 X130.713 Y114.793 E5.28182
G1 X129.827 Y114.793 E0.08067
G1 X171.705 Y72.915 E5.39591
G1 X171.705 Y72.030 E0.08067
G1 X128.942 Y114.793 E5.51000
G1 X128.056 Y114.793 E0.08067
G1 X171.705 Y71.144 E5.62410
G1 X171.705 Y70.259 E0.08067
G1 X127.171 Y114.793 E5.73819
G1 X126.285 Y114.793 E0.08067
G1 X171.641 Y69.438 E5.84394
G1 X171.501 Y68.692 E0.06914
G1 X125.400 Y114.793 E5.94006
G1 X124.514 Y114.793 E0.08067
G1 X171.327 Y67.981 E6.03172
G1 X170.989 Y67.434 E0.05860
G1 X168.650 Y69.772 E0.30131
G1 X169.671 Y68.368 E0.15818
G1 X169.460 Y68.077 E0.03270
G1 X170.650 Y66.887 E0.15338
G1 X170.515 Y66.668 E0.02341
G1 X170.212 Y66.440 E0.03459
G1 X169.087 Y67.564 E0.14492
G1 X168.714 Y67.051 E0.05776
G1 X169.707 Y66.059 E0.12793
G1 X169.203 Y65.678 E0.05760
G1 X168.342 Y66.539 E0.11094
G1 X168.227 Y66.381 E0.01779
G1 X167.319 Y66.676 E0.08695
G1 X168.517 Y65.478 E0.15427
G1 X167.827 Y65.282 E0.06530
G1 X166.008 Y67.102 E0.23446
G1 X165.891 Y67.140 E0.01114
G1 X165.891 Y67.218 E0.00716
G1 X142.423 Y90.687 E3.02389
G1 X142.423 Y89.801 E0.08067
G1 X167.017 Y65.207 E3.16898
G1 X166.132 Y65.207 E0.08067
G1 X142.423 Y88.916 E3.05489
G1 X142.423 Y88.030 E0.08067
G1 X165.247 Y65.207 E2.94080
G1 X164.361 Y65.207 E0.08067
G1 X142.423 Y87.145 E2.82671
G1 X142.423 Y86.260 E0.08067
G1 X163.476 Y65.207 E2.71262
G1 X162.590 Y65.207 E0.08067
G1 X142.423 Y85.374 E2.59853
G1 X142.423 Y84.489 E0.08067
G1 X161.705 Y65.207 E2.48444
G1 X160.819 Y65.207 E0.08067
G1 X142.423 Y83.603 E2.37035
G1 X142.423 Y82.718 E0.08067
G1 X159.934 Y65.207 E2.25626
G1 X159.048 Y65.207 E0.08067
G1 X142.423 Y81.832 E2.14217
G1 X142.423 Y80.947 E0.08067
G1 X158.163 Y65.207 E2.02808
G1 X157.277 Y65.207 E0.08067
G1 X142.423 Y80.061 E1.91398
G1 X142.423 Y79.176 E0.08067
G1 X156.392 Y65.207 E1.79989
G1 X155.506 Y65.207 E0.08067
G1 X142.026 Y78.686 E1.73685
G1 X141.141 Y78.686 E0.08067
G1 X154.621 Y65.207 E1.73685
G1 X153.735 Y65.207 E0.08067
G1 X140.256 Y78.686 E1.73685
G1 X139.370 Y78.686 E0.08067
G1 X152.850 Y65.207 E1.73685
G1 X151.964 Y65.207 E0.08067
G1 X138.485 Y78.686 E1.73685
G1 X137.599 Y78.686 E0.08067
G1 X151.079 Y65.207 E1.73685
G1 X150.194 Y65.207 E0.08067
G1 X136.714 Y78.686 E1.73685
G1 X135.828 Y78.686 E0.08067
G1 X149.308 Y65.207 E1.73685
G1 X148.423 Y65.207 E0.08067
G1 X134.943 Y78.686 E1.73685
G1 X134.057 Y78.686 E0.08067
G1 X147.537 Y65.207 E1.73685
G1 X146.652 Y65.207 E0.08067
G1 X133.172 Y78.686 E1.73685
G1 X132.286 Y78.686 E0.08067
G1 X145.766 Y65.207 E1.73685
G1 X144.881 Y65.207 E0.08067
G1 X131.401 Y78.686 E1.73685
G1 X130.515 Y78.686 E0.08067
G1 X143.995 Y65.207 E1.73685
G1 X143.110 Y65.207 E0.08067
G1 X129.630 Y78.686 E1.73685
G1 X128.744 Y78.686 E0.08067
G1 X142.224 Y65.207 E1.73685
G1 X141.339 Y65.207 E0.08067
G1 X91.752 Y114.793 E6.38914
G1 X90.866 Y114.793 E0.08067
G1 X140.453 Y65.207 E6.38914
G1 X139.568 Y65.207 E0.08067
G1 X89.981 Y114.793 E6.38914
G1 X89.096 Y114.793 E0.08067
G1 X138.682 Y65.207 E6.38914
G1 X137.797 Y65.207 E0.08067
G1 X88.210 Y114.793 E6.38914
G1 X87.325 Y114.793 E0.08067
G1 X136.911 Y65.207 E6.38914
G1 X136.026 Y65.207 E0.08067
G1 X86.439 Y114.793 E6.38914
G1 X85.554 Y114.793 E0.08067
G1 X135.141 Y65.207 E6.38914
G1 X134.255 Y65.207 E0.08067
G1 X84.668 Y114.793 E6.38914
G1 X83.783 Y114.793 E0.08067
G1 X133.370 Y65.207 E6.38914
G1 X132.484 Y65.207 E0.08067
G1 X82.897 Y114.793 E6.38914
G1 X82.012 Y114.793 E0.08067
G1 X131.599 Y65.207 E6.38914
G1 X130.713 Y65.207 E0.08067
G1 X81.126 Y114.793 E6.38914
G1 X80.241 Y114.793 E0.08067
G1 X129.828 Y65.207 E6.38914
G1 X128.942 Y65.207 E0.08067
G1 X79.355 Y114.793 E6.38914
G1 X78.470 Y114.793 E0.08067
G1 X128.057 Y65.207 E6.38914
G1 X127.171 Y65.207 E0.08067
G1 X77.584 Y114.793 E6.38914
G1 X76.699 Y114.793 E0.08067
G1 X126.286 Y65.207 E6.38914
G1 X125.400 Y65.207 E0.08067
G1 X75.813 Y114.793 E6.38914
G1 X74.928 Y114.793 E0.08067
G1 X124.515 Y65.207 E6.38914
G1 X123.629 Y65.207 E0.08067
G1 X74.043 Y114.793 E6.38914
G1 X73.157 Y114.793 E0.08067
G1 X122.744 Y65.207 E6.38914
G1 X121.858 Y65.207 E0.08067
G1 X72.272 Y114.793 E6.38914
G1 X71.386 Y114.793 E0.08067
G1 X120.973 Y65.207 E6.38914
G1 X120.088 Y65.207 E0.08067
G1 X70.501 Y114.793 E6.38914
G1 X69.615 Y114.793 E0.08067
G1 X119.202 Y65.207 E6.38914
G1 X118.317 Y65.207 E0.08067
G1 X68.730 Y114.793 E6.38914
G1 X67.844 Y114.793 E0.08067
G1 X117.431 Y65.207 E6.38914
G1 X116.546 Y65.207 E0.08067
G1 X66.959 Y114.793 E6.38914
G1 X66.073 Y114.793 E0.08067
G1 X115.660 Y65.207 E6.38914
G1 X114.775 Y65.207 E0.08067
G1 X65.188 Y114.793 E6.38914
G1 X64.302 Y114.793 E0.08067
G1 X113.889 Y65.207 E6.38914
G1 X113.004 Y65.207 E0.08067
G1 X63.417 Y114.793 E6.38914
