; generated by Slic3r 1.3.0-dev on 2017-06-04 at 20:31:33

; external perimeters extrusion width = 0.40mm
; perimeters extrusion width = 0.48mm
; infill extrusion width = 0.48mm
; solid infill extrusion width = 0.48mm
; top infill extrusion width = 0.48mm

M107
M190 S60 ; set bed temperature and wait for it to be reached
M104 S215 ; set temperature
G1 X0 Y0 Z1
G92 E0.0 ; reset extruder
M109 S215 ; set temperature and wait for it to be reached
G21 ; set units to millimeters
G90 ; use absolute coordinates
M83 ; use relative distances for extrusion
G1 E-1.30000 F3600.00000
G1 Z0.350 F7800.000
G1 X10.765 Y58.044 F7800.000
G1 E1.30000 F3600.00000
G1 F1800
G1 X12.741 Y57.861 E0.18045
G1 X13.352 Y57.833 E0.05564
G1 X167.552 Y57.833 E14.02135
G1 X169.365 Y58.086 E0.16645
G1 X171.274 Y58.629 E0.18045
G1 X173.454 Y59.714 E0.22138
G1 X175.037 Y60.910 E0.18044
G1 X176.677 Y62.710 E0.22138
G1 X177.722 Y64.397 E0.18045
G1 X178.601 Y66.667 E0.22136
G1 X178.966 Y68.618 E0.18045
G1 X179.079 Y69.835 E0.11118
G1 X179.079 Y110.165 E3.66719
G1 X178.966 Y111.383 E0.11118
G1 X178.601 Y113.333 E0.18045
G1 X177.722 Y115.603 E0.22135
G1 X176.792 Y117.106 E0.16072
G1 X176.677 Y117.291 E0.01976
G1 X175.037 Y119.090 E0.22136
G1 X173.454 Y120.286 E0.18045
G1 X171.274 Y121.371 E0.22138
G1 X169.365 Y121.914 E0.18045
G1 X167.552 Y122.167 E0.16646
G1 X13.352 Y122.167 E14.02135
G1 X12.741 Y122.139 E0.05564
G1 X10.765 Y121.956 E0.18045
G1 X8.423 Y121.289 E0.22140
G1 X6.647 Y120.405 E0.18045
G1 X4.704 Y118.937 E0.22136
G1 X3.367 Y117.471 E0.18046
G1 X2.085 Y115.401 E0.22138
G1 X1.447 Y113.753 E0.16071
G1 X1.368 Y113.550 E0.01974
G1 X0.921 Y111.157 E0.22138
G1 X0.921 Y68.843 E3.84763
G1 X1.368 Y66.450 E0.22138
G1 X2.085 Y64.599 E0.18045
G1 X3.367 Y62.529 E0.22138
G1 X4.704 Y61.062 E0.18046
G1 X6.647 Y59.595 E0.22136
G1 X8.423 Y58.711 E0.18045
G1 X10.707 Y58.061 E0.21594
G1 F6240
G1 X10.981 Y58.024 E-0.15141
G1 F6240
G1 X10.981 Y58.024 E-0.00001
G1 F6240
G1 X12.741 Y57.861 E-0.96868
G1 F6240
G1 X12.950 Y57.852 E-0.11491
G1 E-0.06500 F3600.00000
G1 X166.555 Y112.607 F7800.000
G1 E1.30000 F3600.00000
G1 F1800
G1 X166.555 Y110.923 E0.15314
G1 X168.157 Y110.402 E0.15314
G1 X169.147 Y111.765 E0.15314
G1 X168.157 Y113.128 E0.15314
G1 X166.612 Y112.626 E0.14768
G1 X168.157 Y69.598 F7800.000
G1 F1800
G1 X166.555 Y69.077 E0.15314
G1 X166.555 Y67.393 E0.15314
G1 X168.157 Y66.872 E0.15314
G1 X169.147 Y68.235 E0.15314
G1 X168.192 Y69.549 E0.14769
G1 X149.354 Y79.085 F7800.000
G1 F1800
G1 X149.354 Y93.285 E1.29120
G1 X132.154 Y93.285 E1.56399
G1 X132.154 Y79.085 E1.29120
G1 X149.294 Y79.085 E1.55853
G1 F6240
G1 X149.304 Y81.338 E-1.23500
G1 E-0.06500 F3600.00000
G1 X111.724 Y87.085 F7800.000
G1 E1.30000 F3600.00000
G1 F1800
G1 X111.724 Y103.785 E1.51852
G1 X58.024 Y103.785 E4.88292
G1 X58.024 Y87.085 E1.51852
G1 X111.664 Y87.085 E4.87746
G1 F6240
G1 X111.672 Y89.338 E-1.23500
G1 E-0.06500 F3600.00000
G1 X35.184 Y90.785 F7800.000
G1 E1.30000 F3600.00000
G1 F1800
G1 X24.484 Y90.785 E0.97295
G1 X24.484 Y79.085 E1.06388
G1 X35.184 Y79.085 E0.97295
G1 X35.184 Y90.725 E1.05842
G1 F6240
G1 X32.931 Y90.738 E-1.23500
G1 E-0.06500 F3600.00000
G1 X12.637 Y69.598 F7800.000
G1 E1.30000 F3600.00000
G1 F1800
G1 X11.035 Y69.077 E0.15314
G1 X11.035 Y67.393 E0.15314
G1 X12.637 Y66.872 E0.15314
G1 X13.627 Y68.235 E0.15314
G1 X12.672 Y69.549 E0.14769
G1 X12.637 Y110.402 F7800.000
G1 F1800
G1 X13.627 Y111.765 E0.15314
G1 X12.637 Y113.128 E0.15314
G1 X11.035 Y112.607 E0.15314
G1 X11.035 Y110.923 E0.15314
G1 X12.580 Y110.421 E0.14768
G1 F6240
G1 X13.627 Y111.765 E-0.93375
G1 F6240
G1 X13.304 Y112.210 E-0.30125
G1 E-0.06500 F3600.00000
G1 X9.210 Y113.527 F7800.000
G1 E1.30000 F3600.00000
G1 F1800
G1 X8.566 Y112.820 E0.08693
G1 X7.896 Y111.092 E0.16855
G1 X7.896 Y68.908 E3.83573
G1 X8.566 Y67.180 E0.16855
G1 X9.814 Y65.810 E0.16856
G1 X11.474 Y64.984 E0.16855
G1 X13.368 Y64.808 E0.17303
G1 X167.504 Y64.808 E14.01544
G1 X169.302 Y65.320 E0.17006
G1 X170.782 Y66.437 E0.16854
G1 X171.757 Y68.013 E0.16856
G1 X172.104 Y69.867 E0.17155
G1 X172.104 Y110.133 E3.66129
G1 X171.757 Y111.987 E0.17155
G1 X170.782 Y113.563 E0.16855
G1 X169.302 Y114.680 E0.16854
G1 X167.504 Y115.192 E0.17006
G1 X13.368 Y115.192 E14.01544
G1 X11.474 Y115.016 E0.17303
G1 X9.814 Y114.190 E0.16855
G1 X9.250 Y113.571 E0.07618
G1 X8.639 Y112.015 F7800.000
G1 F1800
G1 X8.887 Y112.654 E0.06236
G1 X10.636 Y110.904 E0.22546
G1 X10.636 Y111.789 E0.08067
G1 X9.305 Y113.121 E0.17157
G1 X9.727 Y113.584 E0.05711
G1 X10.636 Y112.675 E0.11716
G1 X10.636 Y112.860 E0.01692
G1 X11.165 Y113.032 E0.05059
G1 X10.206 Y113.990 E0.12349
G1 X10.797 Y114.285 E0.06016
G1 X11.833 Y113.249 E0.13344
G1 X12.501 Y113.466 E0.06402
G1 X11.388 Y114.579 E0.14338
G1 X12.161 Y114.692 F7800.000
G1 F1800
G1 X35.669 Y91.184 E3.02895
G1 X34.784 Y91.184 E0.08067
G1 X14.117 Y111.851 E2.66293
G1 X13.744 Y111.338 E0.05776
G1 X33.899 Y91.184 E2.59685
G1 X33.013 Y91.184 E0.08067
G1 X13.371 Y110.825 E2.53077
G1 X12.999 Y110.312 E0.05776
G1 X32.128 Y91.184 E2.46469
G1 X31.242 Y91.184 E0.08067
G1 X12.423 Y110.003 E2.42484
G1 X11.111 Y110.429 E0.12566
G1 X30.357 Y91.184 E2.47976
G1 X29.471 Y91.184 E0.08067
G1 X8.639 Y112.015 E2.68412
G1 X8.392 Y111.377 E0.06236
G1 X28.586 Y91.184 E2.60189
G1 X27.700 Y91.184 E0.08067
G1 X8.295 Y110.589 E2.50038
G1 X8.295 Y109.704 E0.08067
G1 X26.815 Y91.184 E2.38629
G1 X25.929 Y91.184 E0.08067
G1 X8.295 Y108.818 E2.27220
G1 X8.295 Y107.933 E0.08067
G1 X25.044 Y91.184 E2.15810
G1 X24.158 Y91.184 E0.08067
G1 X8.295 Y107.047 E2.04401
G1 X8.295 Y106.162 E0.08067
G1 X24.085 Y90.371 E2.03462
G1 X24.085 Y89.486 E0.08067
G1 X8.295 Y105.276 E2.03462
G1 X8.295 Y104.391 E0.08067
G1 X24.085 Y88.600 E2.03462
G1 X24.085 Y87.715 E0.08067
G1 X8.295 Y103.506 E2.03462
G1 X8.295 Y102.620 E0.08067
G1 X24.085 Y86.829 E2.03462
G1 X24.085 Y85.944 E0.08067
G1 X8.295 Y101.735 E2.03462
G1 X8.295 Y100.849 E0.08067
G1 X24.085 Y85.058 E2.03462
G1 X24.085 Y84.173 E0.08067
G1 X8.295 Y99.964 E2.03462
G1 X8.295 Y99.078 E0.08067
G1 X24.085 Y83.287 E2.03462
G1 X24.085 Y82.402 E0.08067
G1 X8.295 Y98.193 E2.03462
G1 X8.295 Y97.307 E0.08067
G1 X24.085 Y81.516 E2.03462
G1 X24.085 Y80.631 E0.08067
G1 X8.295 Y96.422 E2.03462
G1 X8.295 Y95.536 E0.08067
G1 X24.085 Y79.745 E2.03462
G1 X24.085 Y78.860 E0.08067
G1 X8.295 Y94.651 E2.03462
G1 X8.295 Y93.765 E0.08067
G1 X8.295 Y74.285 F7800.000
G1 F1800
G1 X12.608 Y69.971 E0.55583
G1 X11.940 Y69.754 E0.06402
G1 X8.295 Y73.400 E0.46972
G1 X8.295 Y72.514 E0.08067
G1 X11.272 Y69.537 E0.38361
G1 X10.636 Y69.330 E0.06086
G1 X10.636 Y69.287 E0.00399
G1 X8.295 Y71.629 E0.30175
G1 X8.295 Y70.743 E0.08067
G1 X10.636 Y68.401 E0.30175
G1 X10.636 Y67.516 E0.08067
G1 X8.295 Y69.858 E0.30175
G1 X8.295 Y69.140 E0.06538
G1 X8.401 Y68.866 E0.02678
G1 X10.273 Y66.108 F7800.000
G1 F1800
G1 X10.006 Y66.375 E0.03442
G1 X8.892 Y67.597 E0.15057
G1 X8.401 Y68.866 E0.12402
G1 X11.910 Y65.356 E0.45223
G1 X12.886 Y65.266 E0.08929
G1 X11.321 Y66.831 E0.20166
G1 X12.633 Y66.405 E0.12566
G1 X13.831 Y65.207 E0.15437
G1 X14.717 Y65.207 E0.08067
G1 X13.059 Y66.865 E0.21362
G1 X13.431 Y67.377 E0.05776
G1 X15.602 Y65.207 E0.27970
G1 X16.487 Y65.207 E0.08067
G1 X13.804 Y67.890 E0.34578
G1 X14.151 Y68.368 E0.05375
G1 X13.988 Y68.592 E0.02527
G1 X17.373 Y65.207 E0.43619
G1 X18.258 Y65.207 E0.08067
G1 X8.295 Y75.170 E1.28382
G1 X8.295 Y76.056 E0.08067
G1 X19.144 Y65.207 E1.39791
G1 X20.029 Y65.207 E0.08067
G1 X8.295 Y76.941 E1.51200
G1 X8.295 Y77.827 E0.08067
G1 X20.915 Y65.207 E1.62610
G1 X21.800 Y65.207 E0.08067
G1 X8.295 Y78.712 E1.74019
G1 X8.295 Y79.598 E0.08067
G1 X22.686 Y65.207 E1.85428
G1 X23.571 Y65.207 E0.08067
G1 X8.295 Y80.483 E1.96837
G1 X8.295 Y81.369 E0.08067
G1 X24.457 Y65.207 E2.08246
G1 X25.342 Y65.207 E0.08067
G1 X8.295 Y82.254 E2.19655
G1 X8.295 Y83.140 E0.08067
G1 X26.228 Y65.207 E2.31064
G1 X27.113 Y65.207 E0.08067
G1 X8.295 Y84.025 E2.42473
G1 X8.295 Y84.911 E0.08067
G1 X27.999 Y65.207 E2.53882
G1 X28.884 Y65.207 E0.08067
G1 X8.295 Y85.796 E2.65291
G1 X8.295 Y86.682 E0.08067
G1 X29.770 Y65.207 E2.76700
G1 X30.655 Y65.207 E0.08067
G1 X8.295 Y87.567 E2.88109
G1 X8.295 Y88.453 E0.08067
G1 X31.540 Y65.207 E2.99518
G1 X32.426 Y65.207 E0.08067
G1 X8.295 Y89.338 E3.10927
G1 X8.295 Y90.223 E0.08067
G1 X33.311 Y65.207 E3.22336
G1 X34.197 Y65.207 E0.08067
G1 X8.295 Y91.109 E3.33745
G1 X8.295 Y91.994 E0.08067
G1 X35.082 Y65.207 E3.45155
G1 X35.968 Y65.207 E0.08067
G1 X8.295 Y92.880 E3.56564
G1 X8.295 Y93.765 E0.08067
G1 X36.853 Y65.207 E3.67973
G1 X37.739 Y65.207 E0.08067
G1 X24.259 Y78.686 E1.73685
G1 X25.144 Y78.686 E0.08067
G1 X38.624 Y65.207 E1.73685
G1 X39.510 Y65.207 E0.08067
G1 X26.030 Y78.686 E1.73685
G1 X26.915 Y78.686 E0.08067
G1 X40.395 Y65.207 E1.73685
G1 X41.281 Y65.207 E0.08067
G1 X27.801 Y78.686 E1.73685
G1 X28.686 Y78.686 E0.08067
G1 X42.166 Y65.207 E1.73685
G1 X43.052 Y65.207 E0.08067
G1 X29.572 Y78.686 E1.73685
G1 X30.457 Y78.686 E0.08067
G1 X43.937 Y65.207 E1.73685
G1 X44.823 Y65.207 E0.08067
G1 X31.343 Y78.686 E1.73685
G1 X32.228 Y78.686 E0.08067
G1 X45.708 Y65.207 E1.73685
G1 X46.593 Y65.207 E0.08067
G1 X33.114 Y78.686 E1.73685
G1 X33.999 Y78.686 E0.08067
G1 X47.479 Y65.207 E1.73685
G1 X48.364 Y65.207 E0.08067
G1 X34.885 Y78.686 E1.73685
G1 X35.583 Y78.686 E0.06360
G1 X35.583 Y78.874 E0.01707
G1 X49.250 Y65.207 E1.76099
G1 X50.135 Y65.207 E0.08067
G1 X35.583 Y79.759 E1.87508
G1 X35.583 Y80.645 E0.08067
G1 X51.021 Y65.207 E1.98917
G1 X51.906 Y65.207 E0.08067
G1 X35.583 Y81.530 E2.10326
G1 X35.583 Y82.416 E0.08067
G1 X52.792 Y65.207 E2.21736
G1 X53.677 Y65.207 E0.08067
G1 X35.583 Y83.301 E2.33145
G1 X35.583 Y84.187 E0.08067
G1 X54.563 Y65.207 E2.44554
G1 X55.448 Y65.207 E0.08067
G1 X35.583 Y85.072 E2.55963
G1 X35.583 Y85.958 E0.08067
G1 X56.334 Y65.207 E2.67372
G1 X57.219 Y65.207 E0.08067
G1 X35.583 Y86.843 E2.78781
G1 X35.583 Y87.729 E0.08067
G1 X58.105 Y65.207 E2.90190
G1 X58.990 Y65.207 E0.08067
G1 X35.583 Y88.614 E3.01599
G1 X35.583 Y89.499 E0.08067
G1 X59.876 Y65.207 E3.13008
G1 X60.761 Y65.207 E0.08067
G1 X35.583 Y90.385 E3.24417
G1 X35.583 Y91.270 E0.08067
G1 X61.646 Y65.207 E3.35826
G1 X62.532 Y65.207 E0.08067
G1 X12.972 Y114.767 E6.38570
G1 X13.260 Y114.793 E0.02641
G1 X13.831 Y114.793 E0.05194
G1 X63.417 Y65.207 E6.38914
G1 X64.303 Y65.207 E0.08067
G1 X14.716 Y114.793 E6.38914
G1 X15.601 Y114.793 E0.08067
G1 X65.188 Y65.207 E6.38914
G1 X66.074 Y65.207 E0.08067
G1 X16.487 Y114.793 E6.38914
G1 X17.372 Y114.793 E0.08067
G1 X66.959 Y65.207 E6.38914
G1 X67.845 Y65.207 E0.08067
G1 X18.258 Y114.793 E6.38914
G1 X19.143 Y114.793 E0.08067
G1 X68.730 Y65.207 E6.38914
G1 X69.616 Y65.207 E0.08067
G1 X20.029 Y114.793 E6.38914
G1 X20.914 Y114.793 E0.08067
G1 X70.501 Y65.207 E6.38914
G1 X71.387 Y65.207 E0.08067
G1 X21.800 Y114.793 E6.38914
G1 X22.685 Y114.793 E0.08067
G1 X72.272 Y65.207 E6.38914
G1 X73.158 Y65.207 E0.08067
G1 X23.571 Y114.793 E6.38914
G1 X24.456 Y114.793 E0.08067
G1 X74.043 Y65.207 E6.38914
G1 X74.929 Y65.207 E0.08067
G1 X25.342 Y114.793 E6.38914
G1 X26.227 Y114.793 E0.08067
G1 X75.814 Y65.207 E6.38914
G1 X76.699 Y65.207 E0.08067
G1 X27.113 Y114.793 E6.38914
G1 X27.998 Y114.793 E0.08067
G1 X77.585 Y65.207 E6.38914
G1 X78.470 Y65.207 E0.08067
G1 X28.884 Y114.793 E6.38914
G1 X29.769 Y114.793 E0.08067
G1 X57.625 Y86.937 E3.58923
G1 X57.625 Y87.822 E0.08067
G1 X30.654 Y114.793 E3.47514
G1 X31.540 Y114.793 E0.08067
G1 X57.625 Y88.708 E3.36105
G1 X57.625 Y89.593 E0.08067
G1 X32.425 Y114.793 E3.24696
G1 X33.311 Y114.793 E0.08067
G1 X57.625 Y90.479 E3.13287
G1 X57.625 Y91.364 E0.08067
G1 X34.196 Y114.793 E3.01878
G1 X35.082 Y114.793 E0.08067
G1 X57.625 Y92.250 E2.90469
G1 X57.625 Y93.135 E0.08067
G1 X35.967 Y114.793 E2.79060
G1 X36.853 Y114.793 E0.08067
G1 X57.625 Y94.021 E2.67651
G1 X57.625 Y94.906 E0.08067
G1 X37.738 Y114.793 E2.56242
G1 X38.624 Y114.793 E0.08067
G1 X57.625 Y95.792 E2.44833
G1 X57.625 Y96.677 E0.08067
G1 X39.509 Y114.793 E2.33424
G1 X40.395 Y114.793 E0.08067
G1 X57.625 Y97.563 E2.22015
G1 X57.625 Y98.448 E0.08067
G1 X41.280 Y114.793 E2.10606
G1 X42.166 Y114.793 E0.08067
G1 X57.625 Y99.334 E1.99197
G1 X57.625 Y100.219 E0.08067
G1 X43.051 Y114.793 E1.87787
G1 X43.937 Y114.793 E0.08067
G1 X57.625 Y101.104 E1.76378
G1 X57.625 Y101.990 E0.08067
G1 X44.822 Y114.793 E1.64969
G1 X45.707 Y114.793 E0.08067
G1 X57.625 Y102.875 E1.53560
G1 X57.625 Y103.761 E0.08067
G1 X46.593 Y114.793 E1.42151
G1 X47.478 Y114.793 E0.08067
G1 X58.088 Y104.184 E1.36705
G1 X58.974 Y104.184 E0.08067
G1 X48.364 Y114.793 E1.36705
G1 X49.249 Y114.793 E0.08067
G1 X59.859 Y104.184 E1.36705
G1 X60.745 Y104.184 E0.08067
G1 X50.135 Y114.793 E1.36705
G1 X51.020 Y114.793 E0.08067
G1 X61.630 Y104.184 E1.36705
G1 X62.516 Y104.184 E0.08067
G1 X51.906 Y114.793 E1.36705
G1 X52.791 Y114.793 E0.08067
G1 X63.401 Y104.184 E1.36705
G1 X64.287 Y104.184 E0.08067
G1 X53.677 Y114.793 E1.36705
G1 X54.562 Y114.793 E0.08067
G1 X65.172 Y104.184 E1.36705
G1 X66.058 Y104.184 E0.08067
G1 X55.448 Y114.793 E1.36705
G1 X56.333 Y114.793 E0.08067
G1 X66.943 Y104.184 E1.36705
G1 X67.828 Y104.184 E0.08067
G1 X57.219 Y114.793 E1.36705
G1 X58.104 Y114.793 E0.08067
G1 X68.714 Y104.184 E1.36705
G1 X69.599 Y104.184 E0.08067
G1 X58.990 Y114.793 E1.36705
G1 X59.875 Y114.793 E0.08067
G1 X70.485 Y104.184 E1.36705
G1 X71.370 Y104.184 E0.08067
G1 X60.760 Y114.793 E1.36705
G1 X61.646 Y114.793 E0.08067
G1 X72.256 Y104.184 E1.36705
G1 X73.141 Y104.184 E0.08067
G1 X62.531 Y114.793 E1.36705
G1 X63.417 Y114.793 E0.08067
G1 X74.027 Y104.184 E1.36705
G1 X74.912 Y104.184 E0.08067
G1 X64.302 Y114.793 E1.36705
G1 X65.188 Y114.793 E0.08067
G1 X75.798 Y104.184 E1.36705
G1 X76.683 Y104.184 E0.08067
G1 X66.073 Y114.793 E1.36705
G1 X66.959 Y114.793 E0.08067
G1 X77.569 Y104.184 E1.36705
G1 X78.454 Y104.184 E0.08067
G1 X67.844 Y114.793 E1.36705
G1 X68.730 Y114.793 E0.08067
G1 X79.340 Y104.184 E1.36705
G1 X80.225 Y104.184 E0.08067
G1 X69.615 Y114.793 E1.36705
G1 X70.501 Y114.793 E0.08067
G1 X81.111 Y104.184 E1.36705
G1 X81.996 Y104.184 E0.08067
G1 X71.386 Y114.793 E1.36705
G1 X72.272 Y114.793 E0.08067
G1 X82.881 Y104.184 E1.36705
G1 X83.767 Y104.184 E0.08067
G1 X73.157 Y114.793 E1.36705
G1 X74.043 Y114.793 E0.08067
G1 X84.652 Y104.184 E1.36705
G1 X85.538 Y104.184 E0.08067
G1 X74.928 Y114.793 E1.36705
G1 X75.813 Y114.793 E0.08067
G1 X86.423 Y104.184 E1.36705
G1 X87.309 Y104.184 E0.08067
G1 X76.699 Y114.793 E1.36705
G1 X77.584 Y114.793 E0.08067
G1 X88.194 Y104.184 E1.36705
G1 X89.080 Y104.184 E0.08067
G1 X78.470 Y114.793 E1.36705
G1 X79.355 Y114.793 E0.08067
G1 X89.965 Y104.184 E1.36705
G1 X90.851 Y104.184 E0.08067
G1 X80.241 Y114.793 E1.36705
G1 X81.126 Y114.793 E0.08067
G1 X91.736 Y104.184 E1.36705
G1 X92.622 Y104.184 E0.08067
G1 X82.012 Y114.793 E1.36705
G1 X82.897 Y114.793 E0.08067
G1 X93.507 Y104.184 E1.36705
G1 X94.393 Y104.184 E0.08067
G1 X83.783 Y114.793 E1.36705
G1 X84.668 Y114.793 E0.08067
G1 X95.278 Y104.184 E1.36705
G1 X96.164 Y104.184 E0.08067
G1 X85.554 Y114.793 E1.36705
G1 X86.439 Y114.793 E0.08067
G1 X97.049 Y104.184 E1.36705
G1 X97.934 Y104.184 E0.08067
G1 X87.325 Y114.793 E1.36705
G1 X88.210 Y114.793 E0.08067
G1 X98.820 Y104.184 E1.36705
G1 X99.705 Y104.184 E0.08067
G1 X89.096 Y114.793 E1.36705
G1 X89.981 Y114.793 E0.08067
G1 X100.591 Y104.184 E1.36705
G1 X101.476 Y104.184 E0.08067
G1 X90.866 Y114.793 E1.36705
G1 X91.752 Y114.793 E0.08067
G1 X102.362 Y104.184 E1.36705
G1 X103.247 Y104.184 E0.08067
G1 X92.637 Y114.793 E1.36705
G1 X93.523 Y114.793 E0.08067
G1 X104.133 Y104.184 E1.36705
G1 X105.018 Y104.184 E0.08067
G1 X94.408 Y114.793 E1.36705
G1 X95.294 Y114.793 E0.08067
G1 X105.904 Y104.184 E1.36705
G1 X106.789 Y104.184 E0.08067
G1 X96.179 Y114.793 E1.36705
G1 X97.065 Y114.793 E0.08067
G1 X107.675 Y104.184 E1.36705
G1 X108.560 Y104.184 E0.08067
G1 X97.950 Y114.793 E1.36705
G1 X98.836 Y114.793 E0.08067
G1 X109.446 Y104.184 E1.36705
G1 X110.331 Y104.184 E0.08067
G1 X99.721 Y114.793 E1.36705
G1 X100.607 Y114.793 E0.08067
G1 X111.216 Y104.184 E1.36705
G1 X112.102 Y104.184 E0.08067
G1 X101.492 Y114.793 E1.36705
G1 X102.378 Y114.793 E0.08067
G1 X131.755 Y85.416 E3.78527
